dist/img/complex-star.svg

<svg height="77" viewBox="1100 367 77 77" width="77" xmlns="http://www.w3.org/2000/svg"><g fill="#fff" fill-rule="evenodd" opacity=".942572" transform="translate(1100 367)"><path d="m16.4936872 38.5694992c18.0676301 9.3476353 22.0056236 25.8952383 22.0056236 31.9274851 0-6.0322468 3.9393719-22.5798498 22.007002-31.9274851-18.0676301-9.3456793-22.007002-25.8932823-22.007002-31.92748504 0 6.03420274-3.9379935 22.58180574-22.0056236 31.92748504z"/><path d="m16.4936872 38.5694992c18.0676301 9.3476353 22.0056236 25.8952383 22.0056236 31.9274851 0-6.0322468 3.9393719-22.5798498 22.007002-31.9274851-18.0676301-9.3456793-22.007002-25.8932823-22.007002-31.92748504 0 6.03420274-3.9379935 22.58180574-22.0056236 31.92748504z" transform="matrix(.7193398 .69465837 -.69465837 .7193398 37.598043 -15.919424)"/><path d="m16.4267939 38.5338612c18.0676301 9.3476353 22.0056236 25.8952383 22.0056236 31.9274851 0-6.0322468 3.9393719-22.5798498 22.007002-31.9274851-18.0676301-9.3456793-22.007002-25.8932823-22.007002-31.92748504 0 6.03420274-3.9379935 22.58180574-22.0056236 31.92748504z" transform="matrix(0 1 -1 0 76.966968 .100754)"/><path d="m16.4148801 38.5949516c18.06763 9.3476353 22.0056235 25.8952382 22.0056235 31.927485 0-6.0322468 3.9393719-22.5798497 22.007002-31.927485-18.0676301-9.3456794-22.007002-25.8932824-22.007002-31.9274851 0 6.0342027-3.9379935 22.5818057-22.0056235 31.9274851z" transform="matrix(-.70710678 .70710678 -.70710678 -.70710678 92.879831 38.717818)"/><path d="m16.3130681 38.6631259c18.06763 9.3476353 22.0056236 25.8952383 22.0056236 31.927485 0-6.0322467 3.9393718-22.5798497 22.0070019-31.927485-18.0676301-9.3456793-22.0070019-25.8932823-22.0070019-31.92748507 0 6.03420277-3.9379936 22.58180577-22.0056236 31.92748507z" transform="matrix(-.92718385 -.37460659 .37460659 -.92718385 59.36503 88.865645)"/><path d="m16.4267939 38.5338612c18.0676301 9.3476353 22.0056236 25.8952383 22.0056236 31.9274851 0-6.0322468 3.9393719-22.5798498 22.007002-31.9274851-18.0676301-9.3456793-22.007002-25.8932823-22.007002-31.92748504 0 6.03420274-3.9379935 22.58180574-22.0056236 31.92748504z" transform="matrix(-.37460659 .92718385 -.92718385 -.37460659 88.558376 17.334343)"/><path d="m16.4850042 38.4975436c18.0676301 9.3476353 22.0056236 25.8952382 22.0056236 31.927485 0-6.0322468 3.9393719-22.5798497 22.007002-31.927485-18.0676301-9.3456794-22.007002-25.8932824-22.007002-31.9274851 0 6.0342027-3.9379935 22.5818057-22.0056236 31.9274851z" transform="matrix(-.89879405 .43837115 -.43837115 -.89879405 89.963296 56.225425)"/><path d="m16.5817101 38.4367312c18.0676301 9.3476353 22.0056236 25.8952383 22.0056236 31.9274851 0-6.0322468 3.9393719-22.5798498 22.007002-31.9274851-18.0676301-9.3456793-22.007002-25.8932823-22.007002-31.92748501 0 6.03420271-3.9379935 22.58180571-22.0056236 31.92748501z" transform="matrix(-.42261826 -.90630779 .90630779 -.42261826 20.060518 89.653421)"/></g></svg>

<svg width="77px" height="77px" viewBox="1100 367 77 77" version="1.1" xmlns="http://www.w3.org/2000/svg" xmlns:xlink="http://www.w3.org/1999/xlink">
    <defs></defs>
    <g id="Group" stroke="none" stroke-width="1" fill="none" fill-rule="evenodd" transform="translate(1100.000000, 367.000000)" opacity="0.942572295">
        <path d="M16.4936872,38.5694992 C34.5613173,47.9171345 38.4993108,64.4647375 38.4993108,70.4969843 C38.4993108,64.4647375 42.4386827,47.9171345 60.5063128,38.5694992 C42.4386827,29.2238199 38.4993108,12.6762169 38.4993108,6.64201416 C38.4993108,12.6762169 34.5613173,29.2238199 16.4936872,38.5694992 Z" id="Fill-1" fill="#FFFFFF"></path>
        <path d="M16.4936872,38.5694992 C34.5613173,47.9171345 38.4993108,64.4647375 38.4993108,70.4969843 C38.4993108,64.4647375 42.4386827,47.9171345 60.5063128,38.5694992 C42.4386827,29.2238199 38.4993108,12.6762169 38.4993108,6.64201416 C38.4993108,12.6762169 34.5613173,29.2238199 16.4936872,38.5694992 Z" id="Fill-1" fill="#FFFFFF" transform="translate(38.500000, 38.569499) rotate(44.000000) translate(-38.500000, -38.569499) "></path>
        <path d="M16.4267939,38.5338612 C34.494424,47.8814965 38.4324175,64.4290995 38.4324175,70.4613463 C38.4324175,64.4290995 42.3717894,47.8814965 60.4394195,38.5338612 C42.3717894,29.1881819 38.4324175,12.6405789 38.4324175,6.60637616 C38.4324175,12.6405789 34.494424,29.1881819 16.4267939,38.5338612 Z" id="Fill-1" fill="#FFFFFF" transform="translate(38.433107, 38.533861) rotate(90.000000) translate(-38.433107, -38.533861) "></path>
        <path d="M16.4148801,38.5949516 C34.4825101,47.9425869 38.4205036,64.4901898 38.4205036,70.5224366 C38.4205036,64.4901898 42.3598755,47.9425869 60.4275056,38.5949516 C42.3598755,29.2492722 38.4205036,12.7016692 38.4205036,6.6674665 C38.4205036,12.7016692 34.4825101,29.2492722 16.4148801,38.5949516 Z" id="Fill-1" fill="#FFFFFF" transform="translate(38.421193, 38.594952) rotate(135.000000) translate(-38.421193, -38.594952) "></path>
        <path d="M16.3130681,38.6631259 C34.3806981,48.0107612 38.3186917,64.5583642 38.3186917,70.5906109 C38.3186917,64.5583642 42.2580635,48.0107612 60.3256936,38.6631259 C42.2580635,29.3174466 38.3186917,12.7698436 38.3186917,6.73564083 C38.3186917,12.7698436 34.3806981,29.3174466 16.3130681,38.6631259 Z" id="Fill-1" fill="#FFFFFF" transform="translate(38.319381, 38.663126) rotate(202.000000) translate(-38.319381, -38.663126) "></path>
        <path d="M16.4267939,38.5338612 C34.494424,47.8814965 38.4324175,64.4290995 38.4324175,70.4613463 C38.4324175,64.4290995 42.3717894,47.8814965 60.4394195,38.5338612 C42.3717894,29.1881819 38.4324175,12.6405789 38.4324175,6.60637616 C38.4324175,12.6405789 34.494424,29.1881819 16.4267939,38.5338612 Z" id="Fill-1" fill="#FFFFFF" transform="translate(38.433107, 38.533861) rotate(112.000000) translate(-38.433107, -38.533861) "></path>
        <path d="M16.4850042,38.4975436 C34.5526343,47.8451789 38.4906278,64.3927818 38.4906278,70.4250286 C38.4906278,64.3927818 42.4299997,47.8451789 60.4976298,38.4975436 C42.4299997,29.1518642 38.4906278,12.6042612 38.4906278,6.5700585 C38.4906278,12.6042612 34.5526343,29.1518642 16.4850042,38.4975436 Z" id="Fill-1" fill="#FFFFFF" transform="translate(38.491317, 38.497544) rotate(154.000000) translate(-38.491317, -38.497544) "></path>
        <path d="M16.5817101,38.4367312 C34.6493402,47.7843665 38.5873337,64.3319695 38.5873337,70.3642163 C38.5873337,64.3319695 42.5267056,47.7843665 60.5943357,38.4367312 C42.5267056,29.0910519 38.5873337,12.5434489 38.5873337,6.50924619 C38.5873337,12.5434489 34.6493402,29.0910519 16.5817101,38.4367312 Z" id="Fill-1" fill="#FFFFFF" transform="translate(38.588023, 38.436731) rotate(245.000000) translate(-38.588023, -38.436731) "></path>
    </g>
</svg>
